X:1
T:The Two Sisters
M:4/4
L:1/4
K:C
 c| e ee/2-d/2 c| A c/2c/2 G3/2 A/2| G c e g| e2 d| z/2 d/2| e ee/2-d/2 c|\
 A c G2| G c/2A/2 B/2c/2 d/2B/2| c2 c||
